Numix/48x48/categories/applications-java.svg

<?xml version="1.0" encoding="UTF-8" standalone="no"?>
<svg
   xmlns:dc="http://purl.org/dc/elements/1.1/"
   xmlns:cc="http://creativecommons.org/ns#"
   xmlns:rdf="http://www.w3.org/1999/02/22-rdf-syntax-ns#"
   xmlns:svg="http://www.w3.org/2000/svg"
   xmlns="http://www.w3.org/2000/svg"
   xmlns:sodipodi="http://sodipodi.sourceforge.net/DTD/sodipodi-0.dtd"
   xmlns:inkscape="http://www.inkscape.org/namespaces/inkscape"
   width="48"
   height="48"
   viewBox="0 0 38.4 38.4"
   id="svg2"
   version="1.1"
   inkscape:version="0.91 r"
   sodipodi:docname="applications-java.svg">
  <metadata
     id="metadata26">
    <rdf:RDF>
      <cc:Work
         rdf:about="">
        <dc:format>image/svg+xml</dc:format>
        <dc:type
           rdf:resource="http://purl.org/dc/dcmitype/StillImage" />
        <dc:title />
      </cc:Work>
    </rdf:RDF>
  </metadata>
  <defs
     id="defs24" />
  <sodipodi:namedview
     pagecolor="#ffffff"
     bordercolor="#666666"
     borderopacity="1"
     objecttolerance="10"
     gridtolerance="10"
     guidetolerance="10"
     inkscape:pageopacity="0"
     inkscape:pageshadow="2"
     inkscape:window-width="1920"
     inkscape:window-height="1056"
     id="namedview22"
     showgrid="false"
     inkscape:zoom="4.9684211"
     inkscape:cx="23.75"
     inkscape:cy="23.75"
     inkscape:window-x="0"
     inkscape:window-y="24"
     inkscape:window-maximized="1"
     inkscape:current-layer="svg2" />
  <g
     style="fill:#e760c1;fill-rule:evenodd"
     id="g4"
     transform="matrix(1.0229538,0,0,1.0239998,-0.2366673,-0.2559991)">
    <path
       d="m 15.105469,27.113281 c 0,0 -1.136719,0.660157 0.804687,0.886719 2.355469,0.265625 3.554688,0.226562 6.148438,-0.261719 0,0 0.683594,0.425781 1.632812,0.796875 -5.8125,2.492188 -13.152344,-0.144531 -8.585937,-1.421875"
       id="path6"
       inkscape:connector-curvature="0" />
    <path
       d="m 14.394531,23.863281 c 0,0 -1.273437,0.945313 0.671875,1.144531 2.511719,0.257813 4.496094,0.28125 7.929688,-0.378906 0,0 0.476562,0.480469 1.222656,0.742188 -7.027344,2.054687 -14.855469,0.164062 -9.824219,-1.507813"
       id="path8"
       inkscape:connector-curvature="0" />
    <path
       d="m 20.378906,18.351562 c 1.433594,1.648438 -0.375,3.132813 -0.375,3.132813 0,0 3.636719,-1.878906 1.964844,-4.226563 -1.558594,-2.195312 -2.753906,-3.28125 3.722656,-7.039062 0,0 -10.164062,2.539062 -5.3125,8.132812"
       id="path10"
       inkscape:connector-curvature="0" />
    <path
       d="m 28.066406,29.519531 c 0,0 0.839844,0.691407 -0.925781,1.226563 -3.351563,1.015625 -13.960937,1.324218 -16.90625,0.03906 -1.058594,-0.460937 0.925781,-1.097656 1.550781,-1.234375 0.652344,-0.140625 1.023438,-0.113281 1.023438,-0.113281 -1.175782,-0.832031 -7.613282,1.628906 -3.269532,2.332031 11.851563,1.921875 21.601563,-0.863281 18.527344,-2.25"
       id="path12"
       inkscape:connector-curvature="0" />
    <path
       d="m 15.648438,20.496094 c 0,0 -5.394532,1.28125 -1.910157,1.75 1.472657,0.195312 4.40625,0.152344 7.136719,-0.07813 2.234375,-0.1875 4.476562,-0.589844 4.476562,-0.589844 0,0 -0.789062,0.339844 -1.359374,0.726563 -5.476563,1.441406 -16.0625,0.769531 -13.015626,-0.703126 2.578126,-1.246093 4.671876,-1.105468 4.671876,-1.105468"
       id="path14"
       inkscape:connector-curvature="0" />
    <path
       d="m 25.328125,25.90625 c 5.570313,-2.894531 2.996094,-5.675781 1.199219,-5.300781 -0.441406,0.09375 -0.636719,0.171875 -0.636719,0.171875 0,0 0.160156,-0.257813 0.472656,-0.367188 3.558594,-1.25 6.292969,3.6875 -1.144531,5.644532 0,0 0.08594,-0.07813 0.109375,-0.148438"
       id="path16"
       inkscape:connector-curvature="0" />
    <path
       d="m 21.96875,4.15625 c 0,0 3.085938,3.085938 -2.925781,7.832031 -4.816407,3.804688 -1.097657,5.976563 0,8.453125 -2.8125,-2.535156 -4.878907,-4.769531 -3.492188,-6.851562 2.03125,-3.050782 7.664063,-4.53125 6.417969,-9.433594"
       id="path18"
       inkscape:connector-curvature="0" />
    <path
       d="m 16.195312,33.75 c 5.347657,0.34375 13.558594,-0.191406 13.753907,-2.71875 0,0 -0.375,0.957031 -4.421875,1.71875 -4.5625,0.859375 -10.191406,0.761719 -13.527344,0.210938 0,0 0.683594,0.5625 4.195312,0.789062"
       id="path20"
       inkscape:connector-curvature="0" />
  </g>
</svg>

<svg width="47.5" xmlns="http://www.w3.org/2000/svg" height="47.5" viewBox="0 0 38 38" xmlns:xlink="http://www.w3.org/1999/xlink">
<g style="fill:#e760c1;fill-rule:evenodd">
<path d="M 15.105469 27.113281 C 15.105469 27.113281 13.96875 27.773438 15.910156 28 C 18.265625 28.265625 19.464844 28.226562 22.058594 27.738281 C 22.058594 27.738281 22.742188 28.164062 23.691406 28.535156 C 17.878906 31.027344 10.539062 28.390625 15.105469 27.113281 "/>
<path d="M 14.394531 23.863281 C 14.394531 23.863281 13.121094 24.808594 15.066406 25.007812 C 17.578125 25.265625 19.5625 25.289062 22.996094 24.628906 C 22.996094 24.628906 23.472656 25.109375 24.21875 25.371094 C 17.191406 27.425781 9.363281 25.535156 14.394531 23.863281 "/>
<path d="M 20.378906 18.351562 C 21.8125 20 20.003906 21.484375 20.003906 21.484375 C 20.003906 21.484375 23.640625 19.605469 21.96875 17.257812 C 20.410156 15.0625 19.214844 13.976562 25.691406 10.21875 C 25.691406 10.21875 15.527344 12.757812 20.378906 18.351562 "/>
<path d="M 28.066406 29.519531 C 28.066406 29.519531 28.90625 30.210938 27.140625 30.746094 C 23.789062 31.761719 13.179688 32.070312 10.234375 30.785156 C 9.175781 30.324219 11.160156 29.6875 11.785156 29.550781 C 12.4375 29.410156 12.808594 29.4375 12.808594 29.4375 C 11.632812 28.605469 5.195312 31.066406 9.539062 31.769531 C 21.390625 33.691406 31.140625 30.90625 28.066406 29.519531 "/>
<path d="M 15.648438 20.496094 C 15.648438 20.496094 10.253906 21.777344 13.738281 22.246094 C 15.210938 22.441406 18.144531 22.398438 20.875 22.167969 C 23.109375 21.980469 25.351562 21.578125 25.351562 21.578125 C 25.351562 21.578125 24.5625 21.917969 23.992188 22.304688 C 18.515625 23.746094 7.929688 23.074219 10.976562 21.601562 C 13.554688 20.355469 15.648438 20.496094 15.648438 20.496094 "/>
<path d="M 25.328125 25.90625 C 30.898438 23.011719 28.324219 20.230469 26.527344 20.605469 C 26.085938 20.699219 25.890625 20.777344 25.890625 20.777344 C 25.890625 20.777344 26.050781 20.519531 26.363281 20.410156 C 29.921875 19.160156 32.65625 24.097656 25.21875 26.054688 C 25.21875 26.054688 25.304688 25.976562 25.328125 25.90625 "/>
<path d="M 21.96875 4.15625 C 21.96875 4.15625 25.054688 7.242188 19.042969 11.988281 C 14.226562 15.792969 17.945312 17.964844 19.042969 20.441406 C 16.230469 17.90625 14.164062 15.671875 15.550781 13.589844 C 17.582031 10.539062 23.214844 9.058594 21.96875 4.15625 "/>
<path d="M 16.195312 33.75 C 21.542969 34.09375 29.753906 33.558594 29.949219 31.03125 C 29.949219 31.03125 29.574219 31.988281 25.527344 32.75 C 20.964844 33.609375 15.335938 33.511719 12 32.960938 C 12 32.960938 12.683594 33.523438 16.195312 33.75 "/>
</g>
</svg>
